X: 1317
T: Can A Monkey Climb A Tree
B: australian traditional tunes wiki
M:2/4
L:1/8
R: Reel
Q: 1/4=100
K:G
V:1 
|:G/A/|"G"BG AG|D3D/G/|BG AG|"C"E3A/B/|"D7"cA FA|
dd de/d/|1ed "A7"A^A|"G"B2z:|2ed "A7" AB|"G"G3||
|:B/B/|"G"Bc de|d3B|"C"cd e(3f/g/f/|e3e|
"D7"ef fe/f/|"G"gg (3f/g/f/ e|"D7"dc/d/ ef|1"G"g3:|2"G"g4||
% abcbook-tune_id 6342d53a1bce0552ab9d4583


% abcbook-boost 0
% abcbook-tablature 
% abcbook-transpose 
% abcbook-lastupdated 1665324358769
% abcbook-soundfonts 
% abcbook-repeats 1
% NFF Book 2007

